X:1
T:Title
%%score 1 { ( 2 5 ) | ( 3 4 6 ) }
L:1/8
Q:1/4=100
M:3/4
K:Db
V:1 treble nm="Oboe"
V:2 treble nm="Grand Piano"
V:5 treble 
V:3 bass 
V:4 bass 
V:6 bass 
V:1
 A2 f2 e2 | d4 d2 | d3 c de | f4 f2 | e>f g2 e2 | d>e f2 d2 | c>d e2 c2 | d4 d2 | f>e d2 d2 | %9
w: S.~Wilder * *|||||||||
 e>d c2 c2 | d>c B2 B2 | c4 c2 | c>d e2 e2 | d>e f2 f2 | e>f g2 c2 | d6 |] %16
w: |||||||
V:2
 F2 A2 G2 | F2 A2 D2 | z2 z2 G2 | F2 A2 [DFA]2 | G2 z2 z2 | [FA]2 z2 z2 | [EG]>F E2 [A,EG]2 | %7
 [A,DF]4 [A,DF]2 | [DF]2 z2 z2 | [CE]2 z2[K:bass] z2 | F,->[F,-E] [F,F]2[K:treble] [B,E=G]2 | %11
 [A,CA]4 .[A,CG]2 | [EG]>F E2 [A,CG]2 | F>G A2 A2 | [EG]>F E2 [A,EG]2 | [A,DF]6 |] %16
V:3
 [D,A,D]2 [D,A,D]2 [D,A,C]2 | D2 z2 z2 | [B,D]2 z2 z2 | [A,D]2 z2 z2 | %4
 z z/[K:treble] F/ E2[K:bass] A,,2 | z z/ E/ [A,D]2 [D,A,D]2 | z z/ D/ C2 A,,2 | D,4 D,2 | %8
 z z/[K:treble] E/ F2[K:bass] D,2 | z z/ D/ E2 z G, | z2 D2 z2 | A,,4 z E | z z/ D/ C2 A,,2 | %13
 [D,A,D]4 [D,A,D]2 | z z/ D/ C2 A,,2 | D,6 |] %16
V:4
 x6 | [D,A,]2- [D,A,F]2 [D,_C]2 | G,2- [G,D]2 .[G,B,D]2 | D,2- [D,DF]2 D,2 | %4
 A,,4[K:treble][K:bass] z2 | D,4 z2 | [A,,A,]4 z2 | x6 | D,4[K:treble][K:bass] z2 | A,,4 A,,2 | %10
 z z/ C/ z B, E,2 | z2 z2 A,,2 | A,,4 z2 | x6 | [A,,A,]4 z2 | x6 |] %16
V:5
 x6 | x6 | G2 B2 z =A, | x6 | [CA]4 [CGA]2 | D->[DG] F2 F2 | x6 | x6 | A,->[A,-G] [A,A]2 [A,DF]2 | %9
 A,->[A,-F] [A,G]2[K:bass] .[A,CE]2 | [B,D]2 z2[K:treble] z2 | x6 | A,4 z2 | x6 | x6 | x6 |] %16
V:6
 x6 | x6 | x6 | x6 | x3/2[K:treble] x5/2[K:bass] x2 | x6 | x6 | x6 | %8
 x3/2[K:treble] x5/2[K:bass] x2 | x6 | B,,4 z2 | x6 | x6 | x6 | x6 | x6 |] %16

